X:746
L:1/8
Q:1/2=120
M:4/4
K:Ador
 A,3 C E3 F | GEDB, G,B,DB, | A,3 C E3 F | GEDF EA,A,G, | A,3 C E3 F | GEDB, D2 g2 | edeg a2 ba | 
 gedB BA A2 :| a2 ag agef | g2 ga gede | a2 ag agef | gedB BA A2 | agef gage | d2 dB GABd | 
 cAeA Bdef | gedB BA A2 :| eABA eABA | d2 dB GABd | eABA eAAa | gedB BA A2 | eABA eABA | 
 d2 dB GABd | c2 BA Bdef | gedB BA A2 :| aece aece | gdBd gdBd | aece a2 af | gedB BA A2 | 
 agef g2 ge | dedB GA B2 | cAeA d2 ef | gedB BA A2 ::[K:Bmin][Q:1/2=120] BA |"Bm" FBBA"Bm" B2 Bd | 
"F#m" cBAf"A" ecBA |"Bm" FBBA"Bm" B2 Bd |"F#m" cBAc"Bm" B2 :: Bc |"Bm" d2 dc"Bm" dfed | 
"A" (3cBA eA"D" fAeA |"Bm" dcBc"Bm" defb |"A" afec"Bm" B2 :| Bc |"Bm" dB B2"Bm" bafb | 
"A" afec"A" ABce |"Bm" dB B2"Bm" bafb |"A" afec"Bm" B2 Bc |"Bm" dB B2"Bm" bafb |"A" afec"A" ABce | 
"Bm" dcBc"Bm" defb |"A" afec"Bm" B2 ||

